symbols/web/headphones_battery/materialsymbolsrounded/headphones_battery_wght100grad200_24px.svg

<svg xmlns="http://www.w3.org/2000/svg" height="24" width="24"><path d="M3.7 17.8q-.65 0-1.05-.4t-.4-1.05v-4.3q0-2.4 1.65-4.05t4.05-1.65q2.4 0 4.05 1.65t1.65 4.05v4.3q0 .65-.4 1.05t-1.05.4q-.65 0-1.225-.45-.575-.45-.575-1.4V15q0-.825.513-1.338.512-.512 1.337-.512h.3v-1.1q0-1.925-1.337-3.263Q9.875 7.45 7.95 7.45q-1.925 0-3.262 1.337Q3.35 10.125 3.35 12.05v1.1h.3q.825 0 1.338.512.512.513.512 1.338v.95q0 .95-.575 1.4-.575.45-1.225.45Zm13.65 0q-.35 0-.6-.25t-.25-.6V8q0-.35.25-.6t.6-.25h1.15V6.8q0-.225.138-.362.137-.138.362-.138h.3q.225 0 .363.138.137.137.137.362v.35h1.15q.375 0 .638.25.262.25.262.6v8.95q0 .35-.262.6-.263.25-.638.25Zm.5-1.35h2.65-2.65Zm0 0h2.65V8.5h-2.65Z"/></svg>

<svg xmlns="http://www.w3.org/2000/svg" height="24" width="24"><path d="M3.7 17.8Q3.05 17.8 2.65 17.4Q2.25 17 2.25 16.35V12.05Q2.25 9.65 3.9 8Q5.55 6.35 7.95 6.35Q10.35 6.35 12 8Q13.65 9.65 13.65 12.05V16.35Q13.65 17 13.25 17.4Q12.85 17.8 12.2 17.8Q11.55 17.8 10.975 17.35Q10.4 16.9 10.4 15.95V15Q10.4 14.175 10.913 13.662Q11.425 13.15 12.25 13.15H12.55V12.05Q12.55 10.125 11.213 8.787Q9.875 7.45 7.95 7.45Q6.025 7.45 4.688 8.787Q3.35 10.125 3.35 12.05V13.15H3.65Q4.475 13.15 4.988 13.662Q5.5 14.175 5.5 15V15.95Q5.5 16.9 4.925 17.35Q4.35 17.8 3.7 17.8ZM17.35 17.8Q17 17.8 16.75 17.55Q16.5 17.3 16.5 16.95V8Q16.5 7.65 16.75 7.4Q17 7.15 17.35 7.15H18.5V6.8Q18.5 6.575 18.638 6.438Q18.775 6.3 19 6.3H19.3Q19.525 6.3 19.663 6.438Q19.8 6.575 19.8 6.8V7.15H20.95Q21.325 7.15 21.588 7.4Q21.85 7.65 21.85 8V16.95Q21.85 17.3 21.588 17.55Q21.325 17.8 20.95 17.8ZM17.85 16.45H20.5H17.85ZM17.85 16.45H20.5V8.5H17.85Z"/></svg>
